X: 19288
T: J. B. Milne
R: polka
M: 2/4
K: Gmajor
B>c|d>ed>B G2 E2|D3 G B3 ^A|B>dc>B A2 B2|c6 A>B|
c>dc>A F2 E2|D2 F2 A3 ^G|A>cB>A G2 A2|B6 B>c|
d>ed>B G2 E2|D3 G B3 ^A|B>dc>B A2 G2|e6 e>f|
g>ec>G E>G (3cde|e>dB>G D2 B>d|d2 ^c2 =c2 f>a|g6||
B>c|d2 B2 e2 B2|d2 B2 e2 B2|(3ded ^c>d e>d=c>B|c6 A>B|
c2 A2 d2 A2|c2 A2 d2 A>B|(3cdc B>c d>cB>A||B6 B>c|
d2 B2 e2 B2|d2 B2 e2 (3bcd|g2 f>g a>gf>g|e6 e>f|
g>ec>G E>Gc>e|g>dB>G D>G (3Bcd|d2 ^c2 =c2 f>a|g6||

